X:1
T:Domine in auxilium
T:Wilhelm Meyer Lutz transcription James Gibb edit BMarble
T:Domine in auxilium
T:Copyright © 2015 by The Choral Public Domain Library. Edition may be freely distributed, duplicated, performed or recorded.
T:Copyright © 2015 by The Choral Public Domain Library. Edition may be freely distributed, duplicated, performed or recorded.
T:Copyright © 2015 by The Choral Public Domain Library. Edition may be freely distributed, duplicated, performed or recorded.
T:Copyright © 2015 by The Choral Public Domain Library. Edition may be freely distributed, duplicated, performed or recorded.
T:Copyright © 2015 by The Choral Public Domain Library. Edition may be freely distributed, duplicated, performed or recorded.
T:Copyright © 2015 by The Choral Public Domain Library. Edition may be freely distributed, duplicated, performed or recorded.
T:Copyright © 2015 by The Choral Public Domain Library. Edition may be freely distributed, duplicated, performed or recorded.
T:Copyright © 2015 by The Choral Public Domain Library. Edition may be freely distributed, duplicated, performed or recorded.
T:Copyright © 2015 by The Choral Public Domain Library. Edition may be freely distributed, duplicated, performed or recorded.
T:Copyright © 2015 by The Choral Public Domain Library. Edition may be freely distributed, duplicated, performed or recorded.
T:Copyright © 2015 by The Choral Public Domain Library. Edition may be freely distributed, duplicated, performed or recorded.
T:Copyright © 2015 by The Choral Public Domain Library. Edition may be freely distributed, duplicated, performed or recorded.
C:Wilhelm Meyer Lutz
C:transcription James Gibb
C:edit BMarble
Z:Alleluia verse for Corpus Christi
Z:Copyright © 2015 by The Choral Public Domain Library. Edition may be freely distributed, duplicated, performed or recorded.
%%score { ( 1 3 ) | ( 2 4 ) } { ( 5 8 ) | ( 6 7 ) } 9
L:1/8
Q:1/4=80
M:3/4
K:C
V:1 treble nm="Choir" snm="Choir"
V:3 treble 
V:2 bass 
V:4 bass 
V:5 treble nm="Organ" snm="Org."
V:8 treble 
V:6 treble 
V:7 treble 
V:9 bass nm="Pedals" snm="Ped."
V:1
"^Offertory, 16th Pentecost: Ps 40: 14-15Make haste, O Lord, to help me.Let them be ashamed and confounded together, theythat seek after my soul to destroy it." z6 | %1
w: |
w: |
!mf!"^Tutti" A3 A G2 | (A3 B) c2 |!<(! c3 c!<)! d2 | f4 e2 |!>(! d4!>)! ^c2 | d6 | =c2 c4 | B2 B4 | %9
w: Do- mi- ne,|in _ au-|xi- li- um|me- um|re- spi-|ce:|con- fun-|dan- tur|
w: ||||||||
 A2 G2 ^FF |!>(! (G>^F)!>)! E4 | A2!<(! c3!<)! c | f4 f2 | f6 | (!>!e2 !>!d2) !>!c2 | %15
w: et re- ve- re-|an- * tur|qui quae- runt|a- ni-|mam|me- * am,|
w: ||||||
!>(! (B2 c2 B2)!>)! | A4 z2 ||"^sopr:"!<(! (G2 A2)!<)! B2 | c2 G3 G |!<(! G2 A2!<)! B2 | c4 G2 | %21
w: me- * *|am,|con- * fun-|dan- tur et|re- ve- re-|an- tur,|
w: ||||||
 z e (dc) (BA) |!<(! G3 A (D!<)!G) |!>(! F2 E2!>)! z2 |!<(! (G2 A2)!<)! B2 | c2 G3 G | %26
w: qui quae- * runt _|a- ni- mam _|me- am,|con- * fun-|dan- tur et|
w: |||||
"^sopr:"!<(! e2 ^d2!<)! =d2 | c4 G2 |!mf!!<(! (B2 ^c2!<)! ^d2) | (e2 g2) e2 | f4 f2 | (d4 B2) | %32
w: re- ve- re-|an- tur,|qui _ _|quae- * runt|a- ni-|mam _|
w: ||||||
 !>![FB]6 | [Ec]4 ([FA][DF]) | [CE]4 [CE][CE] | [B,E]6 | [CA]4 z2 |!mf!"^Tutti" A3 A G2 | %38
w: me-|am, ut- *|au- fer- ant|e-|am:|Do- mi- ne,|
w: ||||||
 (A3 B) c2 |!<(! c3 c!<)! d2 | f4 e2 |!>(! d4!>)! ^c2 | d6 | =c2 c4 | B2 B4 | A2 G2 ^FF | %46
w: in _ au-|xi- li- um|me- um|re- spi-|ce:|con- fun-|dan- tur|et re- ve- re-|
w: ||||||||
!>(! (G>^F)!>)! E4 | A2!<(! c3!<)! c | f4 f2 | f6 | e2 d2 c2 | B2 c2 B2 | (A4 G2) |!<(! A6-!<)! | %54
w: ant- * tur|qui quae- runt|a- ni-|mam|me- am, ut|au- fer- ant|e- *|am.|
w: ||||||||
!>(! A4!>)! z2 ||[K:A] z6 | z6 | z6 | z6 | z6 | z6 | z6 |"^alto:" (=C2 D2) E2 | =F2 =C3 C | %64
w: _||||||||Con- * fun-|dan- tur et|
w: ||||||||||
 =C2 D2 E2 | =F4 =C2 | A2 _B3 A | =G2 =F2 A2 | =B4 B2 | B3 B (BA) | (^G4 ^F2) | E4 z2 | z6 | %73
w: re- ve- re-|an- tur,|re- ve- re-|an- tur, qui|quae- runt|a- ni- mam _|me- *|am.||
w: |||||||||
 E2 F2 G2 | [CA]3 [CE] [CE]2 |"^sop/alto:" (c2 ^B2) =B2 | A3 A E2 |!<(! (G2 ^A2)!<)! ^B2 | %78
w: Do- mi- ne,|Do- mi- ne,|in _ au-|xi- li- um,|in _ au-|
w: |||||
 c3 c c2 | (d6 | B4) G2 | G4 G2 | A4 z2 | A4 B2 | c4 z2 |!p!"^Largo."[Q:1/4=50] [E=G]4 [DF]2 | %86
w: xi- li- um|me-|um *|re- spi-|ce:|* mi-|ne,|Do- mi-|
w: |me-|* um|re- spi-|ce:|Do- mi-|ne,||
 !fermata![CA]6 |] %87
w: ne.|
w: |
V:2
 z6 | A,3 A, G,2 | A,3 B, C2 | C3 C D2 | F4 E2 | D4 ^C2 | D6 | =C2 C4 | B,2 B,4 | A,2 G,2 ^F,F, | %10
w: ||||||||||
w: ||||||||||
w: ||||||||||
 G,>^F, E,4 | A,2 C3 C | F4 F2 | F6 | !>!E2 !>!D2 !>!C2 | B,2 C2 B,2 | A,4 z2 || z6 | z6 | z6 | %20
w: ||||||||||
w: ||||||||||
w: ||||||||||
 z6 | z6 | z6 | z6 |"^ten:" E2 ^D2 =D2 | C2 C3 C | G2 ^F2 =F2 | [CE]4 [CE]2 | E4 B,2 | B,4 B,2 | %30
w: ||||||||||
w: ||||||||||
w: ||||||||||
 C4 C2 | B,4 D2 | !>![^G,D]6 | C4 DA, | [E,A,]4 [E,A,][E,A,] | A,2 ^G,4 | [A,,A,]4 z2 | %37
w: |||||||
w: |||||||
w: |||||||
 A,3 A, G,2 | A,3 B, C2 | C3 C D2 | F4 E2 | D4 ^C2 | D6 | =C2 C4 | B,2 B,4 | A,2 G,2 ^F,F, | %46
w: |||||||||
w: |||||||||
w: |||||||||
 G,>^F, E,4 | A,2 C3 C | F4 F2 | F6 | E2 D2 C2 | B,2 C2 B,2 | A,4 G,2 | A,6- | A,4 z2 || %55
w: |||||||||
w: |||||||||
w: |||||||||
[K:A]"^Bass:" E,2 F,2 G,2 | A,2 E,3 E, | E,2 F,2 G,2 | A,4 E,2 | z C B,A, G,F, | E,3 F, B,,E, | %61
w: ||||||
w: ||||||
w: Con- * fun-|dan- tur et|re- ve- re-|an- tur,|qui quae- * runt _|a- ni- mam _|
 D,2 C,2 z2 | z6 | z6 | z6 | z6 | z6 | z6 | z6 | z6 | z6 | z6 | z6 |"^ten:" C2 ^B,2 =B,2 | %74
w: |||||||||||||
w: |||||||||||||
w: me- am.|||||||||||||
 A,3 A, A,2 | E2 ^D2 =D2 | C3 C C2 | C4 ^G,2 | G,3 G, G,2 | A,6 | G,4 B,2 | B,4 B,2 | A,4 =G,2 | %83
w: |||||||||
w: |||||||||
w: |||||||re- spi-|ce: Do-|
 F,4 =F,2 | E,4 z2 | [C,A,]4 [D,A,]2 | !fermata![A,,A,]6 |] %87
w: ||||
w: ||||
w: * mi-|ne,|Do- mi-|ne.|
V:3
 x6 | x6 | x6 | x6 | x6 | x6 | x6 | x6 | x6 | x6 | x6 | x6 | x6 | x6 | x6 | x6 | x6 || x6 | x6 | %19
 x6 | x6 | x6 | x6 | x6 | (G2 ^F2) =F2 | E2 E2 z2 | x6 | x6 | (G4 ^F2) | E4 G2 | A4 A2 | F6 | x6 | %33
 x6 | x6 | x6 | x6 | x6 | x6 | x6 | x6 | x6 | x6 | x6 | x6 | x6 | x6 | x6 | x6 | x6 | x6 | x6 | %52
 x6 | x6 | x6 ||[K:A] x6 | x6 | x6 | x6 | x6 | x6 | x6 | x6 | x6 | x6 | x6 | x6 | x6 | x6 | x6 | %70
 x6 | x6 | x6 | E2 ^D2 =D2 | x6 | x6 | x6 | E4 ^D2 | C3 G E2 | F6 | D6 | D4 D2 | C4 (E2 | D4) D2 | %84
 C4 x2 | x6 | x6 |] %87
V:4
 x6 | x6 | x6 | x6 | x6 | x6 | x6 | x6 | x6 | x6 | x6 | x6 | x6 | x6 | x6 | x6 | x6 || x6 | x6 | %19
w: |||||||||||||||||||
w: |||||||||||||||||||
w: |||||||||||||||||||
 x6 | x6 | x6 | x6 | x6 | x6 | x6 | G,2 A,2 B,2 | x6 | B,2 ^A,2 =A,2 | G,2 E,4 | D,4 D,2 | G,6 | %32
w: |||||||||||||
w: |||||||||||||
w: |||||||||||||
 x6 | A,4 D,2 | x6 | E,6 | x6 | x6 | x6 | x6 | x6 | x6 | x6 | x6 | x6 | x6 | x6 | x6 | x6 | x6 | %50
w: ||||||||||||||||||
w: ||||||||||||||||||
w: ||||||||||||||||||
 x6 | x6 | x6 | x6 | x6 ||[K:A] x6 | x6 | x6 | x6 | x6 | x6 | x6 | x6 | x6 | x6 | x6 | x6 | x6 | %68
w: ||||||||||||||||||
w: ||||||||||||||||||
w: ||||||||||||||||||
 x6 | x6 | x6 | x6 | x6 | x6 | x6 | E,2 F,2 G,2 | A,3 A, A,2 | G,2 ^^F,2 ^F,2 | E,3 E, C,2 | B,,6 | %80
w: ||||||||||||
w: ||||||||||||
w: ||||||||||xi- li- um|me-|
 E,6 | E,4 E,2 | A,,4 C,2 | D,4 D,2 | A,,4 x2 | x6 | x6 |] %87
w: |||||||
w: |||||||
w: um|||||||
V:5
!mf! A6- | (A4 G2 | A6) | (c4 d2 | f4 e2 | d4 ^c2 | d6) | (=c6 | B6) | (A2 G2 ^F2) | %10
 (3:2:2(G2 ^F E4) | (E2 A2 c2 | f6-) | f6 | (e2 d2 c2) | (B2 c2 B2) | A2 !>!E2 !>!G2 || %17
!p! (G2 ^F2 =F2) | E4 z2 | (G2 ^F2 =F2) | E4 z2 | (G4 F2 | E4 D2) | (F2 E2 G2) | (G2 ^F2 =F2) | %25
 E4 z2 | (G2 ^F2 =F2) | E4 z2 | (B2 ^c2 ^d2 | e2 g2 e2) | (=f6 | d4 B2) | (B6 | c4) [FA][DF] | %34
 [CE-]6 | [B,E]6 |!mf! A6- | (A4 G2 | A6) | (c4 d2 | f4 e2 | d4 ^c2 | d6) | (=c6 | B6) | %45
 (A2 G2 ^F2) | (3:2:2(G2 ^F E4) | (E2 A2 c2 | f6-) | f6 | (e2 d2 c2) | (B2 c2 B2) | (A4 G2 | A6-) | %54
 A6 ||[K:A]!p! (E2 ^D2 =D2 | C4) z2 | (E2 ^D2 =D2 | C4) z2 | (E4 D2 | C4 B,2) | (D2 C2 =C2) | %62
 (=C2 B,2 _B,2 | A,6) | (=C2 B,2 _B,2 | A,2 =C2 =F2) | (A2 _B3 A | =G2 =F2 A2) | =B6- | B4- BA | %70
 (^G4 ^F2 | E)(c=d)(^AB)(^^F | G)(^DEF=DB,) | (E2 ^D2 =D2 | C4) z2 | (E2 ^D2 =D2 | C2 E2 A2) | %77
 (G2 ^A2 ^B2 | c6) | (d6 | B4 G2-) | G6 | A6- | (A4 B2) | c2 z2 z2 | ([E=G]4 [DF]2) | %86
 !fermata![CA]6 |] %87
V:6
 (6:4:6[A,CE][A,CE][A,CE][A,CE][A,CE][A,CE] (3[A,CE][A,CE][A,CE] | %1
 (6:4:6[CE][CE][CE][CE][CE][CE] (3[CE][CE][CE] | (3[CE][CE][CE] (3[CE][CE][CE] (3[CF][CF][CF] | %3
 (6:4:6[EG][EG][EG][EG][EG][EG] (3[F_B][FB][FB] | %4
 (6:4:6[G_Bd][GBd][GBd][GBd][GBd][GBd] (3[GBd][GBd][GBd] | %5
 (6:4:6[FA][FA][FA][FA][FA][FA] (3[EG][EG][EG] | (6:4:6[FA][FA][FA][FA][FA][FA] (3[FA][FA][FA] | %7
 (6:4:6[C^FA][CFA][CFA][CFA][CFA][CFA] (3[CFA][CFA][CFA] | %8
 (6:4:6[B,EG][B,EG][B,EG][B,EG][B,EG][B,EG] (3[B,EG][B,EG][B,EG] | %9
 (3z [CE][CE] (3z [B,E][B,E] (3z [B,^D][B,D] | %10
 (3:2:2B,2 A, (3[G,B,][G,B,][G,B,] (3[G,B,][G,B,][G,B,] | %11
 (3[A,C][A,C][A,C] (3[CE][CE][CE] (3[EA][EA][EA] | %12
 (3[DFA][DFA][DFA] (3[DFA][DFA][DFA] (3[DFA][DFA][DFA] | %13
 (3[DF^G][DFG][DFG] (3[DFG][DFG][DFG] (3[DFG][DFG][DFG] | A2 ^G2 A2 | D2 E2 D2 | %16
 [A,C]2 !>![CE]2 !>![B,F]2 || [CE]G,^DG,=DG, | CG,CG,CG, | EG,^DG,=DG, | CG,CG,CG, | C6- | C4 B,2 | %23
 D2 C2 E2 | [CE]G,^DG,=DG, | CG,CG,CG, | EG,^DG,=DG, | CG,CG,CG, | GEGE^F^D | B,EB,EB,E | A6 | F6 | %32
 [DF]6 | (3EEE (3EAE[K:bass] DA, | (6:4:6E,F,E,E,E,E, E,2 | (3E,F,E, (3:2:2E,2 E, E,2 | %36
 (6:4:6[A,CE][A,CE][A,CE][A,CE][A,CE][A,CE] (3[A,CE][A,CE][A,CE] | %37
 (6:4:6[CE][CE][CE][CE][CE][CE] (3[CE][CE][CE] | (3[CE][CE][CE] (3[CE][CE][CE] (3[CF][CF][CF] | %39
 (6:4:6[EG][EG][EG][EG][EG][EG] (3[F_B][FB][FB] | %40
 (6:4:6[G_Bd][GBd][GBd][GBd][GBd][GBd] (3[GBd][GBd][GBd] | %41
 (6:4:6[FA][FA][FA][FA][FA][FA] (3[EG][EG][EG] | (6:4:6[FA][FA][FA][FA][FA][FA] (3[FA][FA][FA] | %43
 (6:4:6[C^FA][CFA][CFA][CFA][CFA][CFA] (3[CFA][CFA][CFA] | %44
 (6:4:6[B,EG][B,EG][B,EG][B,EG][B,EG][B,EG] (3[B,EG][B,EG][B,EG] | %45
 (3z [CE][CE] (3z [B,E][B,E] (3z [B,^D][B,D] | %46
 (3:2:2B,2 A, (3[G,B,][G,B,][G,B,] (3[G,B,][G,B,][G,B,] | %47
 (3[A,C][A,C][A,C] (3[CE][CE][CE] (3[EA][EA][EA] | %48
 (3[DFA][DFA][DFA] (3[DFA][DFA][DFA] (3[DFA][DFA][DFA] | %49
 (3[DF^G][DFG][DFG] (3[DFG][DFG][DFG] (3[DFG][DFG][DFG] | A2 ^G2 A2 | D2 E2 D2 | %52
 (3[CE][CE][CE] (3[CE][CE][CE] (3[CE][CE][CE] | %53
!<(! (3[EG][EG][EG] (3[DF][DF][DF] (3[B,DF]!<)![B,DF][B,DF] |!>(! [^CE]6!>)! || %55
[K:A][K:bass] [A,C]E,^B,E,=B,E, | A,E,A,E,A,E, | CE,^B,E,=B,E, | A,E,A,E,A,E, | A,6- | A,4 G,2 | %61
 B,2 A,2 _B,2 | [=F,A,]=C,G,C,=G,C, | =F,=C,F,C,F,C, | A,=C,G,C,=G,C, | =F,=C,A,F,=CA, | %66
 [E=G]A,[EG]A,[EG]A, | EA,DA,EA, | ^DB,DB,DB, | EB,EB, [CF]2 | [B,E]4 [A,^D]2 | [G,E]2 z2 z2 | z6 | %73
 CE,^B,E,=B,E, | A,E,A,E,A,E, | CE,^B,E,=B,E, |!<(! A,E,CA,C!<)!A, |!f! [CE]4 [G,^D]2 | C4 E2 | %79
 F6 | D6- |!>(! D6!>)! |!mf! C4 E2 | (3DDD D4 | [E,A,C]2 (6:4:6z A,,G,,A,,A,,A,, |!p! A,6- | %86
 !fermata!A,6 |] %87
V:7
 x6 | x6 | x6 | x6 | x6 | x6 | x6 | x6 | x6 | x6 | x6 | x6 | x6 | x6 | E6 | z2 ^G,4 | x6 || x6 | %18
 x6 | x6 | x6 | G,4 A,2 | G,6- | G,4 x2 | x6 | x6 | x6 | x6 | B,2 ^A,2 =A,2 | G,6 | C6 | B,4 D2 | %32
 x6 | C4[K:bass] x2 | x6 | x6 | x6 | x6 | x6 | x6 | x6 | x6 | x6 | x6 | x6 | x6 | x6 | x6 | x6 | %49
 x6 | E6 | z2 ^G,4 | x6 | x6 | x6 ||[K:A][K:bass] x6 | x6 | x6 | x6 | E,4 F,2 | E,6- | %61
 E,4 [=C,E,]2 | x6 | x6 | x6 | x6 | x6 | x6 | x6 | x6 | x6 | x6 | x6 | x6 | x6 | x6 | x6 | x6 | %78
 G,6 | A,6 | G,4 B,2 | B,6 | (3A,E,E, (3E,E,E, =G,2 | ^F,4 =F,2 | x6 | C,4 D,2 | %86
 (3E,E,E, !fermata!E,4 |] %87
V:8
 x6 | x6 | x6 | x6 | x6 | x6 | x6 | x6 | x6 | x6 | x6 | x6 | x6 | x6 | x6 | x6 | x6 || x6 | x6 | %19
 x6 | x6 | x6 | x6 | x6 | x6 | x6 | x6 | x6 | x6 | x6 | x6 | x6 | x6 | x6 | A,6- | A,2 ^G,4 | x6 | %37
 x6 | x6 | x6 | x6 | x6 | x6 | x6 | x6 | x6 | x6 | x6 | x6 | x6 | x6 | x6 | x6 | x6 | x6 || %55
[K:A] x6 | x6 | x6 | x6 | x6 | x6 | x6 | x6 | x6 | x6 | x6 | x6 | x6 | x6 | x6 | x6 | x6 | x6 | %73
 x6 | x6 | x6 | x6 | x6 | x6 | x6 | x6 | x6 | x6 | x6 | x6 | x6 | x6 |] %87
V:9
 A,,4 z2 | A,,4 C,2 | A,,4 F,2 | C,4 _B,,2 | G,,4 G,,2 | A,,4 (A,,2 | D,6) | ^D,4 D,2 | E,4 E,2 | %9
 A,,2 B,,2 (B,,2 | E,2) z2 E,2 | (A,4 A,,2) | D,4 C,2 | B,,4 B,,2 | (C,2 B,,2 A,,2) | E,6 | %16
 A,,2 !>!A,2 !>!G,2 || C,6- | C,6 | C,6- | C,6 | E,4 F,2 | G,4 G,,2 | B,,2 C,2 z2 | C,6- | C,6 | %26
 C,6- | C,6 | B,,6 | E,6 | D,6 | G,6 | ^G,6 | A,4 D,2 | E,2 z2 E,2 | E,2 z2 E,2 | A,,4 z2 | %37
 A,,4 C,2 | A,,4 F,2 | C,4 _B,,2 | G,,4 G,,2 | A,,4 (A,,2 | D,6) | ^D,4 D,2 | E,4 E,2 | %45
 A,,2 B,,2 (B,,2 | E,2) z2 E,2 | (A,4 A,,2) | D,4 C,2 | B,,4 B,,2 | (C,2 B,,2 A,,2) | E,6 | %52
 A,,4 C,2 | ^C,2 D,2 D,,2 | A,,6 ||[K:A] A,,6- | A,,6 | A,,6- | A,,6 | C,4 D,2 | E,4 E,,2 | %61
 G,,2 A,,2 =G,,2 | =F,,6- | F,,6 | =F,,6- | F,,4 z2 | ^C,6 | D,4 =C,2 | B,,6 | ^G,,4 A,,2 | B,,6 | %71
 E,2 z2 z2 | z6 | A,,6- | A,,6 | A,,6- | A,,4 A,,2 | G,2 ^^F,2 ^F,2 | E,4 C,2 | B,,6 | E,6 | (E,6 | %82
 A,,4) C,2 | D,4 D,2 | A,,2 z2 z2 | C,4 D,2 | !fermata!A,,6 |] %87

